pix_plugins/mod/assign/gradefeedback.svg

<!DOCTYPE svg PUBLIC "-//W3C//DTD SVG 1.1//EN" "http://www.w3.org/Graphics/SVG/1.1/DTD/svg11.dtd" [
	<!ENTITY ns_flows "http://ns.adobe.com/Flows/1.0/">
]><svg xmlns="http://www.w3.org/2000/svg" width="12" height="12" viewBox="0 0 12 12" preserveAspectRatio="xMinYMid meet" overflow="visible"><path d="M11 5.2v5.8c0 .5-.5 1-1 1h-9c-.5 0-1-.5-1-1v-9c0-.5.5-1 1-1h5.8l-1 1h-3.8c-.5 0-1 .4-1 1v8h8c.5 0 1-.5 1-1v-3.8l1-1zm-4.2-2.9l-4.8 4.8v2.9h2.8l4.8-4.8-2.8-2.9zm4.6-1.7c-.8-.8-2.1-.8-2.8 0l-.8.7 2.8 2.8.7-.7c.9-.8.9-2 .1-2.8z" fill="#999"/></svg>

<!DOCTYPE svg PUBLIC "-//W3C//DTD SVG 1.1//EN" "http://www.w3.org/Graphics/SVG/1.1/DTD/svg11.dtd" [
	<!ENTITY ns_flows "http://ns.adobe.com/Flows/1.0/">
]><svg xmlns="http://www.w3.org/2000/svg" width="12" height="12" viewBox="0 0 12 12" preserveAspectRatio="xMinYMid meet" overflow="visible"><path d="M11 5.2V11c0 .5-.5 1-1 1H1c-.5 0-1-.5-1-1V2c0-.5.5-1 1-1h5.8l-1 1H2c-.5 0-1 .4-1 1v8h8c.5 0 1-.5 1-1V6.2l1-1zM6.8 2.3L2 7.1V10h2.8l4.8-4.8-2.8-2.9zM11.4.6c-.8-.8-2.1-.8-2.8 0l-.8.7 2.8 2.8.7-.7c.9-.8.9-2 .1-2.8z" fill="#999"/></svg>
